sprites/streets-v8/_svg/america-football-15.svg

<?xml version="1.0" encoding="utf-8"?>
<!-- Generator: Adobe Illustrator 17.1.0, SVG Export Plug-In . SVG Version: 6.00 Build 0)  -->
<!DOCTYPE svg PUBLIC "-//W3C//DTD SVG 1.1//EN" "http://www.w3.org/Graphics/SVG/1.1/DTD/svg11.dtd">
<svg version="1.1"
	 id="svg2" xmlns:svg="http://www.w3.org/2000/svg" xmlns:cc="http://creativecommons.org/ns#" xmlns:dc="http://purl.org/dc/elements/1.1/" xmlns:rdf="http://www.w3.org/1999/02/22-rdf-syntax-ns#"
	 xmlns="http://www.w3.org/2000/svg" xmlns:xlink="http://www.w3.org/1999/xlink" x="0px" y="0px" width="23px" height="23px"
	 viewBox="0 0 23 23" enable-background="new 0 0 23 23" xml:space="preserve">
<ellipse id="ellipse4" fill="#FFFFFF" cx="11.5" cy="11.5" rx="11.5" ry="11.5"/>
<ellipse id="ellipse6" fill="#7E9A4C" cx="11.5" cy="11.5" rx="10.5" ry="10.5"/>
<g id="g8" transform="translate(4,3.5)">
	<path id="path5" fill="#FFFFFF" d="M7.5,3C2.2,3,0,8,0,8s2.2,5,7.5,5S15,8,15,8S12.8,3,7.5,3z M4,6.5h1v1h2v-1h1v1h2v-1h1v1h1v1h-1
		v1h-1v-1H8v1H7v-1H5v1H4v-1H3v-1h1V6.5z"/>
</g>
</svg>

<?xml version="1.0" encoding="UTF-8" standalone="no"?>
<svg
   xmlns:dc="http://purl.org/dc/elements/1.1/"
   xmlns:cc="http://creativecommons.org/ns#"
   xmlns:rdf="http://www.w3.org/1999/02/22-rdf-syntax-ns#"
   xmlns:svg="http://www.w3.org/2000/svg"
   xmlns="http://www.w3.org/2000/svg"
   id="svg2"
   width="23"
   height="23"
   viewBox="0 0 23 23"
   version="1.1">
  <metadata
     id="metadata14">
    <rdf:RDF>
      <cc:Work
         rdf:about="">
        <dc:format>image/svg+xml</dc:format>
        <dc:type
           rdf:resource="http://purl.org/dc/dcmitype/StillImage" />
      </cc:Work>
    </rdf:RDF>
  </metadata>
  <defs
     id="defs12" />
  <ellipse
     id="ellipse4"
     ry="11.5"
     rx="11.5"
     cy="11.5"
     cx="11.5"
     style="fill:#ffffff;stroke:none;" />
  <ellipse
     id="ellipse6"
     ry="10.5"
     rx="10.5"
     cy="11.5"
     cx="11.5"
     style="fill:#7e9a4c;stroke:none;" />
  <g
     id="g8"
     transform="translate(4,3.5)">
    <metadata     id="metadata9"><rdf:RDF><cc:Work         rdf:about=""><dc:format>image/svg+xml</dc:format><dc:type           rdf:resource="http://purl.org/dc/dcmitype/StillImage" /><dc:title /></cc:Work></rdf:RDF></metadata><defs     id="defs7" /><path     id="path5"     d="M 7.5 3 C 2.2058824 3 0 8 0 8 C 0 8 2.2058824 13 7.5 13 C 12.794118 13 15 8 15 8 C 15 8 12.794118 3 7.5 3 z M 4 6.5 L 5 6.5 L 5 7.5 L 7 7.5 L 7 6.5 L 8 6.5 L 8 7.5 L 10 7.5 L 10 6.5 L 11 6.5 L 11 7.5 L 12 7.5 L 12 8.5 L 11 8.5 L 11 9.5 L 10 9.5 L 10 8.5 L 8 8.5 L 8 9.5 L 7 9.5 L 7 8.5 L 5 8.5 L 5 9.5 L 4 9.5 L 4 8.5 L 3 8.5 L 3 7.5 L 4 7.5 L 4 6.5 z "     style="fill:#ffffff;fill-opacity:1" />
  </g>
</svg>
